X:932
T:Brendan Ring's
R:reel
C:Brendan Ring
S:David Lombardi
H:Also played in D
Z:id:hn-reel-932
M:C|
L:1/8
K:E
e2df eB~B2 | cAFE DF~F2 | e2df eB~B2 | cedf efgf |
fedf eB~B2 | cAFE DF~F2 | FGGB BAFE | DEFD E4 :|
|: f2fe defe | dB~B2 Bcde | effe defe | dBAF FE~E2 |
effe defe | dB~B2 Bcde | effe d3e |1 dBAF E4 :|2 dBAF EFGA ||
|: BE~E2 BEcE | ~B3A GABG | AF~F2 cAFG | A2GB Acec |
BE~E2 BEcE | ~B3A GABG | AF~F2 cAFE | DEFD E4 ||

